X: 5
T: Reel du Nord
L: 1/8
M: 4/4
K: Bm
Q: 220
"Bm"FBLBB FBLBB | FBLdB "F#m"Lc4 | "Bm"FBLBB FBLBB | "F#m"LfeLdc "Bm"LB4 |
"Bm"FBLBB FBLBB | FBLdB "F#m"Lc4 | "Bm"FBLBB FBLBB | "F#m"LfeLdc "Bm"LB4 :||
"A"Acec Acec | "D"dcdf a4 | "A"Acec Acec | "D"defd A4 |
"A"Acec Acec | "D"dcdf a4 | "A"Acec Acec | "D"dfaf d4 :||
"^Alternate chords for A part""G"FBLBB FBLBB | FBLdB Lc4 | "Em"FBLBB FBLBB | LfeLdc LB4 |
"D"FBLBB FBLBB | FBLdB Lc4 | "F#m"FBLBB FBLBB | LfeLdc LB4 :||

